X: 23
T:Gigue
C:Steve Waring
F:http://simonwascher.info
Z:abc transcription Simon Wascher
Z:Transcrit et/ou corrig par Michel BELLON - 2006-10-06
Z:Pour toute observation mailto:galouvielle@free.fr
M:6/8
L:1/8
F:http://simonwascher.info/TradArchiv_sechsachteltakt/gigue.cBAGABA2EA2BcBAd3-d.abc 2006-10-06 05:23:46 UT
K:Dmin
A |\
d2e fed | cde d2A | d2e fed | g3-g fe | d2e fed | cde dAB | cBc A2e | d3-d3 :|
ad'a gc'g | f2e fed | ad'a gc'g | f2e d3 :: [P:Intro]fga fed | fga fed | fga fed |1 cde d2d :|2 cde d2 |]
%%text Galoubet en sol
%%footer $D   Galouvielle-MBe 2007 \n-- (--)
